packages/astro-components-stencil/src/icons/portable-wifi-off.svg

<svg xmlns="http://www.w3.org/2000/svg" viewBox="0 0 24 24"><g xmlns="http://www.w3.org/2000/svg" id="portable-wifi-off" fill-rule="nonzero">
            <path d="M2.71 3.07a.996.996 0 000 1.41L4.1 5.87C2.79 7.57 2 9.69 2 12c0 3.3 1.6 6.22 4.06 8.04.48.35 1.16.21 1.46-.31.25-.43.14-.99-.26-1.29C5.29 16.98 4 14.65 4 12c0-1.76.57-3.38 1.53-4.69l1.43 1.44a5.97 5.97 0 001.1 7.76c.46.4 1.19.25 1.5-.28l.01-.01c.24-.42.13-.94-.23-1.26A3.947 3.947 0 018 12c0-.65.17-1.25.44-1.79l1.58 1.58L10 12c0 1.1.9 2 2 2l.21-.02 6.81 6.81a.996.996 0 101.41-1.41L4.13 3.07c-.39-.39-1.03-.39-1.42 0zm15 10.75c.18-.57.29-1.19.29-1.82 0-3.31-2.69-6-6-6-.63 0-1.25.11-1.82.29l1.72 1.72c.03 0 .06-.01.1-.01 2.21 0 4 1.79 4 4 0 .04-.01.07-.01.11l1.72 1.71zM12 4c4.42 0 8 3.58 8 8 0 1.2-.29 2.32-.77 3.35l1.49 1.49A9.82 9.82 0 0022 12c0-5.52-4.48-10-10-10-1.76 0-3.4.48-4.84 1.28l1.48 1.48C9.66 4.28 10.8 4 12 4z"/>
        </g></svg>

<svg width="24" height="24" viewBox="0 0 24 24" fill="none" xmlns="http://www.w3.org/2000/svg">
<path fill-rule="evenodd" clip-rule="evenodd" d="M20 12C20 7.58 16.42 4 12 4C10.8 4 9.66 4.28 8.64 4.76L7.16 3.28C8.6 2.48 10.24 2 12 2C17.52 2 22 6.48 22 12C22 13.76 21.53 15.4 20.72 16.84L19.23 15.35C19.71 14.32 20 13.2 20 12ZM2.71 3.07C2.32 3.46 2.32 4.09 2.71 4.48L4.1 5.87C2.79 7.57 2 9.69 2 12C2 15.3 3.6 18.22 6.06 20.04C6.54 20.39 7.22 20.25 7.52 19.73C7.77 19.3 7.66 18.74 7.26 18.44C5.29 16.98 4 14.65 4 12C4 10.24 4.57 8.62 5.53 7.31L6.96 8.75C6.36 9.68 6 10.8 6 12C6 13.8 6.8 15.41 8.06 16.51C8.52 16.91 9.25 16.76 9.56 16.23L9.57 16.22C9.81 15.8 9.7 15.28 9.34 14.96C8.52 14.23 8 13.18 8 12C8 11.35 8.17 10.75 8.44 10.21L10.02 11.79L10 12C10 13.1 10.9 14 12 14L12.21 13.98L19.02 20.79C19.41 21.18 20.04 21.18 20.43 20.79C20.82 20.4 20.82 19.77 20.43 19.38L4.13 3.07C3.74 2.68 3.1 2.68 2.71 3.07ZM17.71 13.82C17.89 13.25 18 12.63 18 12C18 8.69 15.31 6 12 6C11.37 6 10.75 6.11 10.18 6.29L11.9 8.01C11.9139 8.01 11.9278 8.00785 11.9428 8.00554C11.96 8.00287 11.9786 8 12 8C14.21 8 16 9.79 16 12C16 12.02 15.9975 12.0375 15.995 12.055C15.9925 12.0725 15.99 12.09 15.99 12.11L17.71 13.82Z" fill="black"/>
</svg>
